src/icons/thunder.svg

<svg
    width="26"
    height="28"
    viewBox="0 0 26 28"
    fill="none"
    xmlns="http://www.w3.org/2000/svg"
  >
    <path
      d="M6.12207 17.4004H19.5068C23.1055 17.4004 25.8018 14.6719 25.8018 11.2666C25.8018 7.76465 22.9766 5.17578 19.292 5.17578C17.9707 2.57617 15.5107 0.814453 12.2559 0.814453C8.1416 0.814453 4.80078 3.9834 4.40332 7.99023C2.41602 8.58105 0.922852 10.2998 0.922852 12.6201C0.922852 15.2842 2.86719 17.4004 6.12207 17.4004ZM16.1016 21.375H13.8242L14.8447 19.4092C14.9736 19.1729 14.877 18.9902 14.6406 18.9902H12.1162C11.8154 18.9902 11.6973 19.0977 11.6006 19.3232L10.1074 22.7178C10 22.9863 10.1074 23.1475 10.3975 23.1475H12.2988L10.8379 26.6816C10.7842 26.8213 10.8164 26.9502 10.9131 26.9932C11.0098 27.0254 11.1279 27.0039 11.2461 26.8857L16.2627 21.9121C16.499 21.6758 16.4131 21.375 16.1016 21.375Z"
      fill="white"
    />
  </svg>

<svg xmlns="http://www.w3.org/2000/svg" width="26" height="28" fill="none"><path fill="#fff" d="M6.122 17.4h13.385c3.598 0 6.295-2.728 6.295-6.133 0-3.502-2.825-6.091-6.51-6.091-1.321-2.6-3.781-4.362-7.036-4.362-4.114 0-7.455 3.17-7.853 7.176-1.987.591-3.48 2.31-3.48 4.63 0 2.664 1.944 4.78 5.2 4.78Zm9.98 3.975h-2.278l1.02-1.966c.13-.236.033-.419-.203-.419h-2.525c-.3 0-.419.108-.515.333l-1.494 3.395c-.107.268 0 .43.29.43H12.3l-1.461 3.534c-.054.14-.022.268.075.311.097.032.215.01.333-.107l5.017-4.974c.236-.236.15-.537-.161-.537Z"/></svg>
